X:168
T: DU JUNGES GRUEN DU FRISCHES GRAS
N: B0201
O: Europa, Mitteleuropa, Deutschland
R: Jahreszeiten - Lied, Fruehling
M: 3/4
L: 1/16
K: C
G2 | E3FG6A2 | G3Ec4z2
G2 | A3Gd6d2 | c3de4z2
e2 | e3BB4e4 | d3cc4z2
A2 | G3Gc4E4 | F8D3C | C4z6

